X:68
T:Father Kelly's (#2)
A:Ireland
R:Reel
M:4/4
K:G
BddB cBAF | ~G2 BG DGBG | A3 B cBAG | EAAG ABcA |
~d2 Bd cBAF | ~G2 BG DGBG | ~A2 AB cdef |1 gedc BG ~G2 :|2 gedc BGGB ||
dggf gfed | eaag ageg | edad bdad | gfge dcBc |
dggf gfed | eaag agef | ~g2 ge dcBc | dBcA BG G2 :|
